X:1
T:Title
%%score { 1 | ( 2 3 ) }
L:1/8
Q:1/4=124
M:3/4
K:Bb
V:1 treble nm="Grand Piano"
V:2 bass 
V:3 bass 
V:1
 [DB]4 [DB]2 | [DB]4 [FB]2 | [GB]2 A2 [B,EG]2 | [B,DF]4 [DFB]2 | A4 B2 | c4 c2 | B4 A2 | [DB]6 | %8
w: C.~F.~Louthain *||||||||
 [DB]4 [DB]2 | [Fd]4 [Fc]2 | [GB]2 A2 [B,EG]2 | [B,DF]4 [DFB]2 | A4 B2 | c4 c2 | B4 A2 | %15
w: |||||||
[M:2/4] [DB]4 |[M:1/4] [DF]2 |[M:3/4] [EG]4 [EG]2 | [GB]2 [FA]2 [EG]2 | [DF]4 [DB]2 | [Fd]6 | %21
w: ||||||
 c2 c2 c2 | d4 c2 | [DB]4 [EG]2 |[M:2/4] [DF]4 |[M:1/4] [DF]2 |[M:3/4] [EG]4 [EG]2 | %27
w: ||||||
 [GB]2 [FA]2 [EG]2 | [DF]4 [DB]2 | [Fd]4 [Fd]2 | d3 c B2 | c4 [DB]2 | [DB]6- | [DB]6 |] %34
w: |||||||
V:2
 [B,,F,]4 [B,,F,]2 | [B,,F,]4 [D,B,]2 | z2 F2 E,2 | B,,4 B,,2 | [F,C]4 [F,B,D]2 | %5
 [F,A,E]4 [F,A,E]2 | [F,B,D]4 [F,CE]2 | [B,,B,]6 | [B,,B,]4 [B,,B,]2 | [B,,B,]4 [D,B,]2 | %10
 z2 F2 E,2 | B,,4 B,,2 | [F,C]4 [F,B,D]2 | [F,A,E]4 [F,A,E]2 | [F,B,D]4 [F,CE]2 |[M:2/4] [B,,B,]4 | %16
[M:1/4] [B,,B,]2 |[M:3/4] [E,B,]4 [E,B,]2 | [E,B,]2 [E,B,]2 [E,B,]2 | [B,,B,]4 [B,,F,]2 | %20
 [B,,B,]6 | [F,A,F]2 [F,A,F]2 [F,A,F]2 | [F,B,F]4 [F,A,E]2 | [B,,B,]4 [B,,B,]2 |[M:2/4] [B,,B,]4 | %25
[M:1/4] [B,,B,]2 |[M:3/4] [E,B,]4 [E,B,]2 | [E,B,]2 [E,B,]2 [E,B,]2 | [B,,B,]4 [B,,F,]2 | %29
 [B,,B,]4 [B,,B,]2 | [B,F]3 [B,E][K:bass] [B,D]2 | [F,A,E]4 [B,,B,]2 | [B,,B,]6- | [B,,B,]6 |] %34
V:3
 x6 | x6 | [E,B,]4 z2 | x6 | x6 | x6 | x6 | x6 | x6 | x6 | [E,B,]4 z2 | x6 | x6 | x6 | x6 | %15
[M:2/4] x4 |[M:1/4] x2 |[M:3/4] x6 | x6 | x6 | x6 | x6 | x6 | x6 |[M:2/4] x4 |[M:1/4] x2 | %26
[M:3/4] x6 | x6 | x6 | x6 | x4[K:bass] x2 | x6 | x6 | x6 |] %34

